X:1
T:Title
%%score 1 { 2 | 3 }
L:1/8
Q:1/4=138
M:2/2
K:G
V:1 treble nm="Grand Piano, Soprano"
V:2 bass nm="Choir Pad, Bass"
V:3 bass 
V:1
 E4 [CA]2 [EA]2 | [E^G]2 [EA]2 [=FB]4 | [E^G]4 [EA]4 | [CE]4 [EG]2 [FA]2 | [EG]2 [CF]2 [B,E]4 | %5
w: By~Lowell~Mason,~1839 * *|||||
 [B,^D]4 [B,E]4 | [CE]4 [D=F]2 [CE]2 | [B,D]2 [DG]2 [DG]4 | [DF]4 [DG]4 | [DA]4 [DB]2 [EB]2 | %10
w: |||||
 [Ec]2 [EA]2 [CE]4 | [DE]4 [CE]4- | [CE]8 |] %13
w: |||
V:2
 E,4 A,2 A,2 | D2 C2 D4 | B,4 C4 | A,4 B,2 B,2 | B,2 A,2 G,4 | F,4 G,4 | G,4 G,2 G,2 | %7
 G,2 B,2 B,4 | A,4 B,4 | F,4 G,2 G,2 | A,2 A,2 A,4 | B,4 A,4- | A,8 |] %13
V:3
 z4 A,,2 C,2 | B,,2 A,,2 D,4 | E,4 A,,4 | A,,4 E,2 ^D,2 | E,2 A,,2 B,,4 | B,,4 E,4 | C,4 B,,2 C,2 | %7
 z2 G,,2 D,4 | D,4 G,4 | D,4 z2 E,2 | A,,2 C,2 E,4 | E,4 A,,4- | A,,8 |] %13

